X:1
T:Title
%%score { ( 1 3 4 ) | ( 2 5 ) }
L:1/8
Q:1/4=144
M:6/4
K:Ab
V:1 treble nm="Grand Piano"
V:3 treble 
V:4 treble 
V:2 bass 
V:5 bass 
V:1
 [Ec]2 [DB]2 [CA]2 [Ec]3 [DB] [CA]2 | [CE]2 [_C=D]2 [_DF]2 [=CE]3 [B,D] [A,C]2 | %2
w: Chas.~H.~Gabriel * * * * *||
 [DE]2 [DG]2 [DB]2 B2 c2 B2 | [DB]2 [CA]2 [B,G]2 [CA]6 | [Ec]2 [DB]2 [CA]2 [Ec]3 [EB] [EA]2 | %5
w: |||
 [Ed]2 [Ec]2 [EB]2 [Ed]3 [Ec] [EB]2 | [F=d]2 [Fc]2 [Fd]2 [Ee]3 [Ee] [EA]2 | [EG]2 [=DA]2 [DF]2 E6 | %8
w: |||
 .d12 | z2 D2 D2 GEFGAB | .[Ec]12 | [CE]12 | z2 B,2 B,2 B,2[K:treble] [=DF]2 [DA]2 | %13
w: |||||
 c2- [=Dc-]2 [Dc]2 [DB]4 F2 | B6 z6 | B6 c6 | .d12 | z2 D2 D2 GEFGAB | .[Ec]12 | [CE]12 | %20
w: |||||||
 A2- [EA-]2 [EA-]2 A2 B2 c2 | d6 =d6 | .e12 | [CA]12 |] %24
w: ||||
V:2
 [A,,A,]2 [A,,A,]2 [A,,E,]2 [A,,A,]3 [A,,A,] [A,,E,]2 | %1
 [A,,A,]2 [A,,F,]2 [A,,G,]2 [A,,A,]3 [A,,A,] [A,,E,]2 | %2
 [B,,G,]2 [B,,E,]2 [B,,G,]2 [E,G,D]2 [E,G,E]2 [E,D]2 | [A,,E,]2 [A,,E,]2 [A,,E,]2 [A,,E,]6 | %4
 [A,,A,]2 [A,,A,]2 [A,,E,]2 [A,,A,]3 [B,,G,] [C,A,]2 | %5
 [B,,G,]2 [B,,G,]2 [B,,G,]2 [B,,G,]3 [B,,G,] [B,,G,]2 | %6
 [_C,A,]2 [C,A,]2 [C,A,]2 [=C,A,]3 [C,A,] [_C,A,]2 | [B,,B,]2 [B,,F,]2 [B,,A,]2 [E,G,]6 | %8
 [E,B,]2 [E,B,]2 [E,B,]2 G,4 B,2 | [E,G,D]2 [E,G,]2 [E,G,]2 .[E,B,D]6 | %10
 [A,,A,]2 A,,2 A,,2 z2 D2 C2 | A,,2 A,,2 A,,2 .A,,6 | %12
 [B,,A,B,]2 [B,,A,]2 [B,,A,]2 [B,,A,]2 [B,,A,]2 [B,,F,]2 | %13
 [B,,A,]2 [B,,A,]2 [B,,A,]2 [B,,A,]4 [A,B,=D]2 | [G,B,E]4 [G,B,]2 [F,A,=D]4 [B,,A,]2 | %15
 [E,G,E]2 [E,G,]2 [E,G,]2 [E,A,E]4 [E,A,]2 | [E,B,]2 [E,B,]2 [E,B,]2 G,4 B,2 | %17
 [E,G,D]2 [E,G,]2 [E,G,]2 .[E,B,D]6 | [A,,A,]2 A,,2 A,,2 z2 D2 C2 | A,,2 A,,2 A,,2 .A,,6 | %20
 C,2 [C,A,]2 [C,A,]2 [C,A,]2 [E,G,]2 [A,E]2 | [G,B,E]2 [G,B,]2 [G,B,]2 [F,B,]4 [F,B,]2 | %22
 [E,B,]2 [E,B,]2 [E,B,]2 [E,B,]2 [E,B,E]2 [E,G,D]2 | [A,,A,]12 |] %24
V:3
 x12 | x12 | x12 | x12 | x12 | x12 | x12 | x12 | G2 G2 G2 z2 B2 G2 | F6 z6 | z2 A,2 A,2 z2 B2 A2 | %11
 A,2 A,2 A,2 .A,6 | .=D12[K:treble] | .=D6 z6 | z4 E2 B4 [=DB]2 | z2 E2 E2 z4 E2 | %16
 G2 G2 G2 z2 B2 G2 | F6 z6 | z2 A,2 A,2 z2 B2 A2 | A,2 A,2 A,2 .A,6 | .[A,E]6 .E6 | %21
 z2 E2 E2 A4 A2 | G2 G2 G2 G2 d2 B2 | x12 |] %24
V:4
 x12 | x12 | x12 | x12 | x12 | x12 | x12 | x12 | z6 E6 | x12 | z6 A,6 | x12 | x8[K:treble] x4 | %13
 x12 | x12 | x12 | z6 E6 | x12 | z6 A,6 | x12 | x12 | x12 | x12 | x12 |] %24
V:5
 x12 | x12 | x12 | x12 | x12 | x12 | x12 | x12 | z6 E,6 | x12 | z6 A,,6 | x12 | x12 | x12 | x12 | %15
 x12 | z6 E,6 | x12 | z6 A,,6 | x12 | x12 | x12 | x12 | x12 |] %24

